X: 3
T: The Gold Ring
R: jig
M: 6/8
L: 1/8
K: Gmaj
|:BAG A2d|cAG ~G3|BAG A2d|cAG FGA|BAG A2d|cAG GBd|gbg afd|cAG G2A:|
|:~B3 Bdc|~A3 dcA|~G3 GFG|ADE FGA|~B3 Bdc|A3 dAG|FDE F2d|1 cAG G2A:|2 cAG G2g||
|:fdd edd|fdd edd|fdd ed^c|d=cA GBd|fdd edd|fdd ed^c|dfa gfd|1 cAG G2z:|2 cAG GBd||
|:~g3 efd|cAG GBd|~g3 efd|cAG FGA|~g3 efd|~g3 fed|gfg afd|1 cAG GBd:|2 cAG G2E||
|:DBB DBB|DAA DAA|~G3 GBd|cAG FGA|DBB DBB|DAA DAA|G3 GBd|1 cAF G2E:|2 cAF G2A||
|:~B3 ~D3|~A3 ~D3|~G3 GBd|cAG FGA|~B3 ~D3|~A3 ~D3|~G3 GBd|cAF G2A:|
|:B2G A2G|d2G G2A|B2G A2G|cAG FGA|BAG AGF|GFD FGA|fag fed|cAF G2A:|


Tune 37	Setting 21061

